assets/svg/app/wallet-purple.svg

<svg width="54" height="49" viewBox="0 0 54 49" fill="none" xmlns="http://www.w3.org/2000/svg">
<g filter="url(#filter0_d)">
<path d="M40.1021 11.572H11.9202C12.236 11.3258 12.613 11.1611 13.0287 11.1087L37.3285 8.01809C38.6214 7.85326 39.7945 8.83338 39.9495 10.2096L40.1021 11.572Z" fill="#8F81FF"/>
<path d="M43.859 14.2629V38.2222C43.859 39.9166 42.5674 41.2878 40.9763 41.2878H11.0459C9.45476 41.2878 8.16309 39.9167 8.16309 38.2222V14.2629C8.16309 12.5684 9.45476 11.1973 11.0459 11.1973H40.9763C42.5674 11.1973 43.859 12.5684 43.859 14.2629Z" fill="#402FC8"/>
<path opacity="0.8" d="M38.7883 38.1067H37.3731C37.2434 38.1067 37.1382 37.9948 37.1382 37.857C37.1382 37.7191 37.2434 37.6072 37.3731 37.6072H38.7883C38.9179 37.6072 39.0231 37.7191 39.0231 37.857C39.0231 37.9948 38.9179 38.1067 38.7883 38.1067ZM35.9579 38.1067H34.5427C34.413 38.1067 34.3078 37.9948 34.3078 37.857C34.3078 37.7191 34.413 37.6072 34.5427 37.6072H35.9579C36.0875 37.6072 36.1927 37.7191 36.1927 37.857C36.1927 37.9948 36.0875 38.1067 35.9579 38.1067ZM33.1275 38.1067H31.7123C31.5826 38.1067 31.4774 37.9948 31.4774 37.857C31.4774 37.7191 31.5826 37.6072 31.7123 37.6072H33.1275C33.2571 37.6072 33.3623 37.7191 33.3623 37.857C33.3623 37.9948 33.2571 38.1067 33.1275 38.1067ZM30.2969 38.1067H28.8817C28.7521 38.1067 28.6469 37.9948 28.6469 37.857C28.6469 37.7191 28.7521 37.6072 28.8817 37.6072H30.2969C30.4266 37.6072 30.5318 37.7191 30.5318 37.857C30.5318 37.9948 30.4267 38.1067 30.2969 38.1067ZM27.4665 38.1067H26.0513C25.9217 38.1067 25.8165 37.9948 25.8165 37.857C25.8165 37.7191 25.9217 37.6072 26.0513 37.6072H27.4665C27.5962 37.6072 27.7014 37.7191 27.7014 37.857C27.7014 37.9948 27.5963 38.1067 27.4665 38.1067ZM24.6361 38.1067H23.2209C23.0913 38.1067 22.9861 37.9948 22.9861 37.857C22.9861 37.7191 23.0913 37.6072 23.2209 37.6072H24.6361C24.7658 37.6072 24.871 37.7191 24.871 37.857C24.871 37.9948 24.7659 38.1067 24.6361 38.1067ZM21.8057 38.1067H20.3905C20.2609 38.1067 20.1557 37.9948 20.1557 37.857C20.1557 37.7191 20.2609 37.6072 20.3905 37.6072H21.8057C21.9354 37.6072 22.0406 37.7191 22.0406 37.857C22.0406 37.9948 21.9354 38.1067 21.8057 38.1067ZM18.9753 38.1067H17.5601C17.4305 38.1067 17.3253 37.9948 17.3253 37.857C17.3253 37.7191 17.4305 37.6072 17.5601 37.6072H18.9753C19.105 37.6072 19.2102 37.7191 19.2102 37.857C19.2102 37.9948 19.105 38.1067 18.9753 38.1067ZM16.1448 38.1067H14.7296C14.6 38.1067 14.4947 37.9948 14.4947 37.857C14.4947 37.7191 14.6 37.6072 14.7296 37.6072H16.1448C16.2744 37.6072 16.3796 37.7191 16.3796 37.857C16.3796 37.9948 16.2746 38.1067 16.1448 38.1067ZM13.3144 38.1067H13.1708C12.6848 38.1067 12.2164 37.9188 11.852 37.5775C11.7546 37.4864 11.7452 37.3285 11.831 37.225C11.9166 37.1216 12.065 37.1114 12.1625 37.2027C12.4411 37.4636 12.7991 37.6072 13.1709 37.6072H13.3145C13.4441 37.6072 13.5494 37.7191 13.5494 37.857C13.5494 37.9948 13.4441 38.1067 13.3144 38.1067ZM40.074 37.5813C40.0126 37.5813 39.951 37.5558 39.905 37.505C39.8149 37.4057 39.8175 37.2476 39.9109 37.1518C40.2117 36.8431 40.3773 36.4283 40.3773 35.9838C40.3773 35.8459 40.4825 35.7302 40.6121 35.7302C40.7418 35.7302 40.847 35.8382 40.847 35.9762V35.9839C40.847 36.5652 40.6303 37.1076 40.237 37.5113C40.1915 37.558 40.1327 37.5813 40.074 37.5813ZM11.4112 36.3196C11.2863 36.3196 11.1824 36.215 11.1767 36.0811C11.1753 36.0487 11.1746 36.0164 11.1746 35.9839V34.5651C11.1746 34.4272 11.2798 34.3154 11.4094 34.3154C11.539 34.3154 11.6443 34.4272 11.6443 34.5651V35.9839C11.6443 36.0089 11.6448 36.0339 11.6459 36.0587C11.6517 36.1966 11.5514 36.3132 11.4219 36.3194C11.4182 36.3194 11.4147 36.3196 11.4112 36.3196ZM40.6122 34.7209C40.4826 34.7209 40.3774 34.6091 40.3774 34.4712V32.9662C40.3774 32.8284 40.4826 32.7165 40.6122 32.7165C40.7419 32.7165 40.8471 32.8284 40.8471 32.9662V34.4712C40.8471 34.6092 40.7419 34.7209 40.6122 34.7209ZM11.4094 33.3096C11.2798 33.3096 11.1746 33.1977 11.1746 33.0599V31.5549C11.1746 31.4171 11.2798 31.3052 11.4094 31.3052C11.539 31.3052 11.6443 31.4171 11.6443 31.5549V33.0599C11.6443 33.1979 11.5392 33.3096 11.4094 33.3096ZM40.6122 31.711C40.4826 31.711 40.3774 31.5991 40.3774 31.4613V29.9563C40.3774 29.8185 40.4826 29.7066 40.6122 29.7066C40.7419 29.7066 40.8471 29.8185 40.8471 29.9563V31.4613C40.8471 31.5991 40.7419 31.711 40.6122 31.711ZM11.4094 30.2997C11.2798 30.2997 11.1746 30.1878 11.1746 30.05V28.545C11.1746 28.4071 11.2798 28.2953 11.4094 28.2953C11.539 28.2953 11.6443 28.4071 11.6443 28.545V30.05C11.6443 30.1878 11.5392 30.2997 11.4094 30.2997ZM40.6122 28.7011C40.4826 28.7011 40.3774 28.5892 40.3774 28.4513V26.9463C40.3774 26.8084 40.4826 26.6965 40.6122 26.6965C40.7419 26.6965 40.8471 26.8084 40.8471 26.9463V28.4513C40.8471 28.5893 40.7419 28.7011 40.6122 28.7011ZM11.4094 27.2898C11.2798 27.2898 11.1746 27.1779 11.1746 27.04V25.535C11.1746 25.3971 11.2798 25.2852 11.4094 25.2852C11.539 25.2852 11.6443 25.3971 11.6443 25.535V27.04C11.6443 27.178 11.5392 27.2898 11.4094 27.2898ZM40.6122 25.6912C40.4826 25.6912 40.3774 25.5793 40.3774 25.4414V23.9365C40.3774 23.7986 40.4826 23.6867 40.6122 23.6867C40.7419 23.6867 40.8471 23.7986 40.8471 23.9365V25.4414C40.8471 25.5793 40.7419 25.6912 40.6122 25.6912ZM11.4094 24.2799C11.2798 24.2799 11.1746 24.168 11.1746 24.0301V22.5252C11.1746 22.3873 11.2798 22.2754 11.4094 22.2754C11.539 22.2754 11.6443 22.3873 11.6443 22.5252V24.0301C11.6443 24.168 11.5392 24.2799 11.4094 24.2799ZM40.6122 22.6811C40.4826 22.6811 40.3774 22.5692 40.3774 22.4314V20.9264C40.3774 20.7886 40.4826 20.6767 40.6122 20.6767C40.7419 20.6767 40.8471 20.7886 40.8471 20.9264V22.4314C40.8471 22.5694 40.7419 22.6811 40.6122 22.6811ZM11.4094 21.2698C11.2798 21.2698 11.1746 21.1579 11.1746 21.0201V19.5151C11.1746 19.3772 11.2798 19.2654 11.4094 19.2654C11.539 19.2654 11.6443 19.3772 11.6443 19.5151V21.0201C11.6443 21.158 11.5392 21.2698 11.4094 21.2698ZM40.6122 19.6712C40.4826 19.6712 40.3774 19.5593 40.3774 19.4214V17.9165C40.3774 17.7786 40.4826 17.6667 40.6122 17.6667C40.7419 17.6667 40.8471 17.7786 40.8471 17.9165V19.4214C40.8471 19.5593 40.7419 19.6712 40.6122 19.6712ZM11.4094 18.26C11.2798 18.26 11.1746 18.1481 11.1746 18.0103V16.5052C11.1746 16.3673 11.2798 16.2554 11.4094 16.2554C11.539 16.2554 11.6443 16.3673 11.6443 16.5052V18.0103C11.6443 18.1481 11.5392 18.26 11.4094 18.26ZM40.6101 16.6613C40.4854 16.6613 40.3816 16.5571 40.3757 16.4234C40.356 15.98 40.1718 15.5741 39.857 15.2806C39.7595 15.1895 39.7498 15.0318 39.8352 14.9282C39.9206 14.8244 40.0689 14.8139 40.1666 14.9049C40.5782 15.2888 40.819 15.8196 40.8447 16.3998C40.8509 16.5376 40.7508 16.6545 40.6213 16.6611C40.6175 16.6611 40.6138 16.6613 40.6101 16.6613ZM11.9451 15.4061C11.8838 15.4061 11.8225 15.3807 11.7765 15.3301C11.6862 15.2311 11.6885 15.073 11.7816 14.977C12.156 14.5913 12.6492 14.3787 13.1704 14.3787C13.1707 14.3787 13.1708 14.3787 13.1709 14.3787H13.2298C13.3595 14.3787 13.4647 14.4906 13.4647 14.6285C13.4647 14.7663 13.3595 14.8782 13.2298 14.8782H13.1709C13.1708 14.8782 13.1707 14.8782 13.1705 14.8782C12.7719 14.8782 12.3948 15.0407 12.1087 15.3357C12.0629 15.3826 12.0039 15.4061 11.9451 15.4061ZM38.7036 14.8781H37.2884C37.1588 14.8781 37.0536 14.7662 37.0536 14.6283C37.0536 14.4905 37.1588 14.3786 37.2884 14.3786H38.7036C38.8333 14.3786 38.9385 14.4905 38.9385 14.6283C38.9385 14.7662 38.8334 14.8781 38.7036 14.8781ZM35.8732 14.8781H34.458C34.3284 14.8781 34.2232 14.7662 34.2232 14.6283C34.2232 14.4905 34.3284 14.3786 34.458 14.3786H35.8732C36.0029 14.3786 36.1081 14.4905 36.1081 14.6283C36.1081 14.7662 36.003 14.8781 35.8732 14.8781ZM33.0428 14.8781H31.6276C31.498 14.8781 31.3928 14.7662 31.3928 14.6283C31.3928 14.4905 31.498 14.3786 31.6276 14.3786H33.0428C33.1724 14.3786 33.2777 14.4905 33.2777 14.6283C33.2777 14.7662 33.1724 14.8781 33.0428 14.8781ZM30.2124 14.8781H28.7972C28.6676 14.8781 28.5623 14.7662 28.5623 14.6283C28.5623 14.4905 28.6676 14.3786 28.7972 14.3786H30.2124C30.342 14.3786 30.4473 14.4905 30.4473 14.6283C30.4473 14.7662 30.342 14.8781 30.2124 14.8781ZM27.382 14.8781H25.9668C25.8372 14.8781 25.7319 14.7662 25.7319 14.6283C25.7319 14.4905 25.8372 14.3786 25.9668 14.3786H27.382C27.5116 14.3786 27.6168 14.4905 27.6168 14.6283C27.6168 14.7662 27.5116 14.8781 27.382 14.8781ZM24.5515 14.8781H23.1363C23.0066 14.8781 22.9014 14.7662 22.9014 14.6283C22.9014 14.4905 23.0066 14.3786 23.1363 14.3786H24.5515C24.6811 14.3786 24.7863 14.4905 24.7863 14.6283C24.7863 14.7662 24.6812 14.8781 24.5515 14.8781ZM21.7211 14.8781H20.3059C20.1762 14.8781 20.071 14.7662 20.071 14.6283C20.071 14.4905 20.1762 14.3786 20.3059 14.3786H21.7211C21.8507 14.3786 21.9559 14.4905 21.9559 14.6283C21.9559 14.7662 21.8508 14.8781 21.7211 14.8781ZM18.8907 14.8781H17.4755C17.3458 14.8781 17.2406 14.7662 17.2406 14.6283C17.2406 14.4905 17.3458 14.3786 17.4755 14.3786H18.8907C19.0203 14.3786 19.1255 14.4905 19.1255 14.6283C19.1255 14.7662 19.0204 14.8781 18.8907 14.8781ZM16.0603 14.8781H14.645C14.5154 14.8781 14.4102 14.7662 14.4102 14.6283C14.4102 14.4905 14.5154 14.3786 14.645 14.3786H16.0603C16.1899 14.3786 16.2951 14.4905 16.2951 14.6283C16.2951 14.7662 16.1899 14.8781 16.0603 14.8781Z" fill="#8F81FF"/>
<path d="M45.788 23.9949V28.4903C45.788 29.5244 45.0001 30.3634 44.0266 30.3634H37.8213C35.6807 30.3634 33.9463 28.5179 33.9463 26.2426C33.9463 23.9663 35.6807 22.1218 37.8213 22.1218H44.0266C45.0002 22.1218 45.788 22.961 45.788 23.9949Z" fill="#8F81FF"/>
<path d="M38.1138 28.9391C39.5142 28.9391 40.6495 27.7318 40.6495 26.2426C40.6495 24.7533 39.5142 23.5461 38.1138 23.5461C36.7134 23.5461 35.5781 24.7533 35.5781 26.2426C35.5781 27.7318 36.7134 28.9391 38.1138 28.9391Z" fill="#402FC8"/>
</g>
<defs>
<filter id="filter0_d" x="0.530447" y="0.367361" width="52.8902" height="48.5531" filterUnits="userSpaceOnUse" color-interpolation-filters="sRGB">
<feFlood flood-opacity="0" result="BackgroundImageFix"/>
<feColorMatrix in="SourceAlpha" type="matrix" values="0 0 0 0 0 0 0 0 0 0 0 0 0 0 0 0 0 0 127 0" result="hardAlpha"/>
<feOffset/>
<feGaussianBlur stdDeviation="3.81632"/>
<feColorMatrix type="matrix" values="0 0 0 0 0.25098 0 0 0 0 0.184314 0 0 0 0 0.784314 0 0 0 0.6 0"/>
<feBlend mode="normal" in2="BackgroundImageFix" result="effect1_dropShadow"/>
<feBlend mode="normal" in="SourceGraphic" in2="effect1_dropShadow" result="shape"/>
</filter>
</defs>
</svg>

<svg viewBox="0 0 54 49" fill="none" xmlns="http://www.w3.org/2000/svg">
    <g filter="url(#filter0_d)">
        <path d="M40.102 11.572H11.92c.316-.246.693-.41 1.109-.463l24.3-3.09c1.292-.166 2.465.814 2.62 2.19l.153 1.363z" fill="#8F81FF"/>
        <path d="M43.859 14.263v23.96c0 1.694-1.292 3.065-2.883 3.065h-29.93c-1.591 0-2.883-1.371-2.883-3.066v-23.96c0-1.694 1.292-3.065 2.883-3.065h29.93c1.591 0 2.883 1.371 2.883 3.066z" fill="#402FC8"/>
        <path opacity=".8" d="M38.788 38.107h-1.415c-.13 0-.235-.112-.235-.25s.105-.25.235-.25h1.415c.13 0 .235.112.235.25s-.105.25-.235.25zm-2.83 0h-1.415c-.13 0-.235-.112-.235-.25s.105-.25.235-.25h1.415c.13 0 .235.112.235.25s-.105.25-.235.25zm-2.83 0h-1.416c-.13 0-.235-.112-.235-.25s.106-.25.235-.25h1.415c.13 0 .235.112.235.25s-.105.25-.235.25zm-2.831 0h-1.415c-.13 0-.235-.112-.235-.25s.105-.25.235-.25h1.415c.13 0 .235.112.235.25s-.105.25-.235.25zm-2.83 0H26.05c-.13 0-.234-.112-.234-.25s.105-.25.234-.25h1.416c.13 0 .234.112.234.25s-.105.25-.235.25zm-2.83 0H23.22c-.13 0-.235-.112-.235-.25s.105-.25.235-.25h1.415c.13 0 .235.112.235.25s-.105.25-.235.25zm-2.831 0H20.39c-.13 0-.234-.112-.234-.25s.105-.25.235-.25h1.415c.13 0 .235.112.235.25s-.106.25-.235.25zm-2.83 0H17.56c-.13 0-.235-.112-.235-.25s.105-.25.235-.25h1.415c.13 0 .235.112.235.25s-.105.25-.235.25zm-2.831 0H14.73c-.13 0-.235-.112-.235-.25s.105-.25.235-.25h1.415c.13 0 .235.112.235.25s-.105.25-.235.25zm-2.83 0h-.144c-.486 0-.955-.188-1.319-.53a.26.26 0 01-.021-.352.225.225 0 01.332-.022c.278.26.636.404 1.008.404h.144c.13 0 .234.112.234.25s-.105.25-.235.25zm26.759-.526a.227.227 0 01-.169-.076.261.261 0 01.006-.353c.3-.309.466-.724.466-1.168 0-.138.105-.254.235-.254a.24.24 0 01.235.246v.008c0 .581-.217 1.124-.61 1.527a.227.227 0 01-.163.07zM11.411 36.32a.242.242 0 01-.234-.239 2.248 2.248 0 01-.002-.097v-1.419c0-.138.105-.25.234-.25.13 0 .235.112.235.25v1.419c0 .025 0 .05.002.075.006.138-.095.254-.224.26h-.01zm29.201-1.6a.241.241 0 01-.235-.249v-1.505c0-.138.106-.25.235-.25.13 0 .235.112.235.25v1.505c0 .138-.105.25-.235.25zM11.41 33.31c-.13 0-.234-.112-.234-.25v-1.505c0-.138.105-.25.234-.25.13 0 .235.112.235.25v1.505c0 .138-.105.25-.235.25zm29.203-1.599c-.13 0-.235-.112-.235-.25v-1.505c0-.137.106-.25.235-.25.13 0 .235.113.235.25v1.505c0 .138-.105.25-.235.25zM11.41 30.3c-.13 0-.234-.112-.234-.25v-1.505c0-.138.105-.25.234-.25.13 0 .235.112.235.25v1.505c0 .138-.105.25-.235.25zm29.202-1.6c-.13 0-.235-.112-.235-.25v-1.505c0-.138.106-.25.235-.25.13 0 .235.112.235.25v1.505c0 .138-.105.25-.235.25zM11.41 27.29c-.13 0-.234-.112-.234-.25v-1.505c0-.138.105-.25.234-.25.13 0 .235.112.235.25v1.505c0 .138-.105.25-.235.25zm29.203-1.599c-.13 0-.235-.112-.235-.25v-1.505c0-.137.106-.25.235-.25.13 0 .235.113.235.25v1.505c0 .138-.105.25-.235.25zM11.41 24.28c-.13 0-.234-.112-.234-.25v-1.505c0-.138.105-.25.234-.25.13 0 .235.112.235.25v1.505c0 .138-.105.25-.235.25zm29.203-1.599c-.13 0-.235-.112-.235-.25v-1.505c0-.137.106-.25.235-.25.13 0 .235.113.235.25v1.505c0 .138-.105.25-.235.25zM11.41 21.27c-.13 0-.234-.112-.234-.25v-1.505c0-.138.105-.25.234-.25.13 0 .235.112.235.25v1.505c0 .138-.105.25-.235.25zm29.203-1.599c-.13 0-.235-.112-.235-.25v-1.505c0-.137.106-.25.235-.25.13 0 .235.113.235.25v1.505c0 .138-.105.25-.235.25zM11.41 18.26c-.13 0-.234-.112-.234-.25v-1.505c0-.138.105-.25.234-.25.13 0 .235.112.235.25v1.505c0 .138-.105.25-.235.25zm29.201-1.599a.242.242 0 01-.234-.238 1.65 1.65 0 00-.519-1.142.261.261 0 01-.022-.353.225.225 0 01.332-.023c.411.384.652.915.678 1.495.006.138-.094.255-.224.261h-.01zm-28.665-1.255a.227.227 0 01-.168-.076.261.261 0 01.005-.353 1.926 1.926 0 011.388-.598h.06c.13 0 .235.112.235.25 0 .137-.105.25-.235.25h-.06a1.47 1.47 0 00-1.061.457.228.228 0 01-.164.07zm26.759-.528h-1.416c-.13 0-.234-.112-.234-.25 0-.137.105-.25.234-.25h1.416c.13 0 .234.113.234.25 0 .138-.105.25-.234.25zm-2.83 0h-1.416c-.13 0-.235-.112-.235-.25 0-.137.105-.25.235-.25h1.415c.13 0 .235.113.235.25 0 .138-.105.25-.235.25zm-2.831 0h-1.415c-.13 0-.235-.112-.235-.25 0-.137.105-.25.235-.25h1.415c.13 0 .235.113.235.25 0 .138-.106.25-.235.25zm-2.83 0h-1.416c-.13 0-.235-.112-.235-.25 0-.137.106-.25.235-.25h1.415c.13 0 .235.113.235.25 0 .138-.105.25-.235.25zm-2.831 0h-1.415c-.13 0-.235-.112-.235-.25 0-.137.105-.25.235-.25h1.415c.13 0 .235.113.235.25 0 .138-.105.25-.235.25zm-2.83 0h-1.416c-.13 0-.235-.112-.235-.25 0-.137.106-.25.235-.25h1.416c.13 0 .234.113.234.25 0 .138-.105.25-.235.25zm-2.83 0h-1.416c-.13 0-.235-.112-.235-.25 0-.137.105-.25.235-.25h1.415c.13 0 .235.113.235.25 0 .138-.105.25-.235.25zm-2.831 0h-1.415c-.13 0-.235-.112-.235-.25 0-.137.105-.25.235-.25h1.415c.13 0 .235.113.235.25 0 .138-.106.25-.235.25zm-2.83 0h-1.416c-.13 0-.235-.112-.235-.25 0-.137.105-.25.235-.25h1.415c.13 0 .235.113.235.25 0 .138-.105.25-.235.25z" fill="#8F81FF"/>
        <path d="M45.788 23.995v4.495c0 1.034-.788 1.873-1.761 1.873H37.82c-2.14 0-3.875-1.845-3.875-4.12 0-2.277 1.735-4.121 3.875-4.121h6.206c.973 0 1.761.839 1.761 1.873z" fill="#8F81FF"/>
        <path d="M38.114 28.94c1.4 0 2.536-1.208 2.536-2.697 0-1.49-1.136-2.697-2.536-2.697-1.4 0-2.536 1.207-2.536 2.697 0 1.489 1.135 2.696 2.536 2.696z" fill="#402FC8"/>
    </g>
    <defs>
        <filter id="filter0_d" x=".53" y=".367" width="52.89" height="48.553" filterUnits="userSpaceOnUse" color-interpolation-filters="sRGB">
            <feFlood flood-opacity="0" result="BackgroundImageFix"/>
            <feColorMatrix in="SourceAlpha" values="0 0 0 0 0 0 0 0 0 0 0 0 0 0 0 0 0 0 127 0" result="hardAlpha"/>
            <feOffset/>
            <feGaussianBlur stdDeviation="3.816"/>
            <feColorMatrix values="0 0 0 0 0.25098 0 0 0 0 0.184314 0 0 0 0 0.784314 0 0 0 0.6 0"/>
            <feBlend in2="BackgroundImageFix" result="effect1_dropShadow"/>
            <feBlend in="SourceGraphic" in2="effect1_dropShadow" result="shape"/>
        </filter>
    </defs>
</svg>
